public/assets/images/about/icons/19.svg

<svg width="60" height="60" viewBox="0 0 60 60" fill="none" xmlns="http://www.w3.org/2000/svg">
<path d="M29.0625 2.13672H30.9375V6.56172H29.0625V2.13672Z" fill="#615EFC"/>
<path d="M49.6875 25.3125H54.1125V27.1875H49.6875V25.3125Z" fill="#615EFC"/>
<path d="M5.88751 25.3125H10.3125V27.1875H5.88751V25.3125Z" fill="#615EFC"/>
<path d="M43.25 40.8359L44.5758 39.5101L47.7048 42.6391L46.3789 43.9649L43.25 40.8359Z" fill="#615EFC"/>
<path d="M12.285 9.86328L13.6109 8.53746L16.7398 11.6664L15.414 12.9922L12.285 9.86328Z" fill="#615EFC"/>
<path d="M43.2529 11.668L46.3819 8.53902L47.7077 9.86485L44.5788 12.9938L43.2529 11.668Z" fill="#615EFC"/>
<path d="M45.9375 26.2509C45.937 23.6484 45.2992 21.0856 44.0798 18.7865C42.8604 16.4873 41.0966 14.5218 38.9423 13.0615C36.7881 11.6013 34.3091 10.6908 31.7218 10.4097C29.1345 10.1285 26.5178 10.4852 24.1002 11.4486C21.6826 12.412 19.5377 13.9528 17.8529 15.9364C16.1681 17.9199 14.9947 20.2859 14.4352 22.8275C13.8757 25.3691 13.9471 28.0091 14.6432 30.5168C15.3393 33.0244 16.6389 35.3235 18.4284 37.2131C20.938 39.8156 22.3848 43.2618 22.485 46.8759C22.239 46.8798 22.0043 46.9803 21.8318 47.1557C21.6592 47.3311 21.5625 47.5673 21.5625 47.8134V53.4384C21.5625 53.9356 21.76 54.4126 22.1117 54.7642C22.4633 55.1158 22.9402 55.3134 23.4375 55.3134H26.3681C26.5753 56.1192 27.0446 56.8332 27.7021 57.343C28.3596 57.8529 29.168 58.1296 30 58.1296C30.832 58.1296 31.6404 57.8529 32.2979 57.343C32.9554 56.8332 33.4247 56.1192 33.6319 55.3134H36.5625C37.0598 55.3134 37.5367 55.1158 37.8883 54.7642C38.24 54.4126 38.4375 53.9356 38.4375 53.4384V47.8134C38.4375 47.5675 38.341 47.3314 38.1686 47.156C37.9962 46.9807 37.7618 46.88 37.5159 46.8759C37.6511 43.2276 39.1249 39.7568 41.6559 37.1259C44.4135 34.1768 45.9445 30.2883 45.9375 26.2509ZM32.8125 53.4384C32.5639 53.4384 32.3254 53.5371 32.1496 53.713C31.9738 53.8888 31.875 54.1272 31.875 54.3759C31.875 54.8731 31.6775 55.3501 31.3258 55.7017C30.9742 56.0533 30.4973 56.2509 30 56.2509C29.5027 56.2509 29.0258 56.0533 28.6742 55.7017C28.3225 55.3501 28.125 54.8731 28.125 54.3759C28.125 54.1272 28.0262 53.8888 27.8504 53.713C27.6746 53.5371 27.4361 53.4384 27.1875 53.4384H23.4375V48.7509H36.5625V53.4384H32.8125ZM34.8853 27.0871L29.7188 32.2509C29.7188 30.4921 30.0159 27.9599 31.5712 26.4046C33.5597 24.4162 37.1653 24.4743 38.6784 24.6009C38.8041 26.1121 38.8659 29.7196 36.8747 31.7081C35.3288 33.254 32.8172 33.5587 31.0622 33.5606L36.2137 28.4099L34.8853 27.0871ZM35.625 46.8759H31.5938C30.2451 43.2207 29.6565 39.3288 29.8641 35.4384C30.0394 35.444 30.2166 35.4515 30.3759 35.4515C30.5353 35.4515 30.7078 35.4515 30.8569 35.4431H31.0181C33.1069 35.4431 36.1809 35.0502 38.1975 33.0327C41.43 29.8012 40.4897 23.8509 40.4475 23.5996C40.4156 23.4063 40.324 23.2278 40.1854 23.0892C40.0468 22.9507 39.8683 22.859 39.675 22.8271C39.4237 22.7859 33.4744 21.8474 30.2419 25.0771C29.9849 25.3385 29.75 25.6207 29.5397 25.9209C26.6334 23.7337 22.3406 24.2165 22.1438 24.2399C21.9354 24.2651 21.7415 24.3594 21.5931 24.5078C21.4448 24.6561 21.3505 24.85 21.3253 25.0584C21.3 25.2693 20.7319 30.2681 23.5819 33.1293C24.8055 34.2697 26.3479 35.0098 28.0031 35.2509C27.7796 39.193 28.3234 43.141 29.6044 46.8759H24.375C24.2712 42.7801 22.6358 38.872 19.7916 35.9231C17.9953 34.0265 16.7628 31.6672 16.2322 29.1095C15.7015 26.5519 15.8938 23.897 16.7873 21.4424C17.6809 18.9879 19.2404 16.8307 21.2911 15.2127C23.3419 13.5948 25.8027 12.58 28.3978 12.2821C31.2563 11.9532 34.1469 12.5091 36.6795 13.8747C39.2122 15.2403 41.265 17.35 42.5609 19.919C43.8568 22.488 44.3334 25.3927 43.9265 28.2411C43.5196 31.0896 42.2487 33.7446 40.2853 35.8481C37.4252 38.8236 35.7655 42.751 35.625 46.8759ZM27.8438 32.0831C27.8391 32.5359 27.8513 32.9456 27.8728 33.2962C26.7684 33.0846 25.7444 32.5705 24.915 31.8112C23.2847 30.1743 23.1234 27.4049 23.1506 26.0652C24.4191 26.0315 26.9822 26.1993 28.6378 27.6168C28.3804 28.2757 28.1889 28.9584 28.0659 29.6549L26.2453 27.8343L24.9159 29.1571L27.8438 32.0831Z" fill="#615EFC"/>
<path d="M12.2812 42.6328L15.4102 39.5039L16.736 40.8297L13.6071 43.9586L12.2812 42.6328Z" fill="#615EFC"/>
</svg>

<svg xmlns="http://www.w3.org/2000/svg" width="60" height="60" fill="none" viewBox="0 0 60 60"><path fill="#615efc" d="M29.063 2.137h1.875v4.425h-1.875zm20.625 23.176h4.424v1.875h-4.425zm-43.8 0h4.425v1.875H5.888zM43.25 40.836l1.326-1.326 3.129 3.13-1.326 1.325zM12.285 9.863l1.326-1.326 3.129 3.13-1.326 1.325zm30.968 1.805 3.129-3.129 1.326 1.326-3.13 3.129zm2.685 14.582a15.937 15.937 0 1 0-27.51 10.963 14.5 14.5 0 0 1 4.057 9.663.937.937 0 0 0-.922.937v5.625a1.875 1.875 0 0 0 1.875 1.875h2.93a3.75 3.75 0 0 0 7.264 0h2.93a1.875 1.875 0 0 0 1.876-1.875v-5.625a.94.94 0 0 0-.922-.937 14.86 14.86 0 0 1 4.14-9.75 15.88 15.88 0 0 0 4.282-10.875M32.812 53.439a.937.937 0 0 0-.937.938 1.875 1.875 0 1 1-3.75 0 .937.937 0 0 0-.937-.938h-3.75v-4.687h13.125v4.687zm2.073-26.35L29.72 32.25c0-1.759.297-4.291 1.852-5.846 1.989-1.989 5.594-1.93 7.107-1.804.126 1.511.188 5.119-1.803 7.107-1.546 1.546-4.058 1.85-5.813 1.853l5.152-5.151zm.74 19.788h-4.031a28.6 28.6 0 0 1-1.73-11.438c.175.006.353.014.512.014s.332 0 .48-.009h.162c2.089 0 5.163-.393 7.18-2.41 3.232-3.232 2.292-9.182 2.25-9.433a.94.94 0 0 0-.773-.773c-.251-.041-6.2-.98-9.433 2.25a6.6 6.6 0 0 0-.702.844c-2.907-2.187-7.2-1.704-7.396-1.681a.94.94 0 0 0-.819.818c-.025.211-.593 5.21 2.257 8.071a8.2 8.2 0 0 0 4.421 2.122 30.5 30.5 0 0 0 1.601 11.625h-5.229a16.38 16.38 0 0 0-4.583-10.953 14.062 14.062 0 0 1 16.887-22.048 14.062 14.062 0 0 1 3.606 21.973 16.74 16.74 0 0 0-4.66 11.028m-7.781-14.793a17 17 0 0 0 .029 1.213 6.07 6.07 0 0 1-2.958-1.485c-1.63-1.637-1.792-4.406-1.764-5.746 1.268-.034 3.831.134 5.487 1.552a10.7 10.7 0 0 0-.572 2.038l-1.82-1.82-1.33 1.322zM12.281 42.633l3.13-3.13 1.325 1.327-3.129 3.129z"/></svg>
